X:61
T:Cushie Butterfield
R:
M:3/4
K:G % transposed from C
dd|g2 g2 gf|g2 B2 dd|c2 B2 A2|G4 fg|a2 d2 c'2|a2 d2 fa|g2 f2 e2|d4 de|
B2 g2 ga|gf d2 dd|A2 a2 b2|d4 ga|b2 c'b ag|a2 g2 ee|d2 e2 f2|g4 z2||
de|B2 g2 ga|gf d2 dd|A2 a2 b2|d4 ga|b2 c'b ag|a2 g2 ee|d2 e2 f2|g4 z2||
